X:577
M:C|
L:1/8
K:C
c|BG G/G/G dBgd|BG G/G/G cAFA|BG G/G/G dBga|b^fgd BGG:|
f|e/f/g dg cgBg|Affc AFFf|e/f/g dg cgBg|Aggd BGGf|e/f/g dg cgBg|

